fs/content_view_32_regular.svg

<svg viewBox="0 0 32 32" fill="none" xmlns="http://www.w3.org/2000/svg" height="1em" width="1em">
  <path d="M7.99805 11C7.99805 9.89543 8.89348 9 9.99805 9H21.998C23.1026 9 23.998 9.89543 23.998 11V14C23.998 15.1046 23.1026 16 21.998 16H9.99805C8.89348 16 7.99805 15.1046 7.99805 14V11ZM21.998 11H9.99805V14H21.998V11ZM18.998 18C17.8935 18 16.998 18.8954 16.998 20V22C16.998 23.1046 17.8935 24 18.998 24H21.998C23.1026 24 23.998 23.1046 23.998 22V20C23.998 18.8954 23.1026 18 21.998 18H18.998ZM18.998 20H21.998V22H18.998V20ZM7.99805 19C7.99805 18.4477 8.44576 18 8.99805 18H13.998C14.5503 18 14.998 18.4477 14.998 19C14.998 19.5523 14.5503 20 13.998 20H8.99805C8.44576 20 7.99805 19.5523 7.99805 19ZM8.99805 22C8.44576 22 7.99805 22.4477 7.99805 23C7.99805 23.5523 8.44576 24 8.99805 24H13.998C14.5503 24 14.998 23.5523 14.998 23C14.998 22.4477 14.5503 22 13.998 22H8.99805ZM8.99219 4C6.23076 4 3.99219 6.23858 3.99219 9V23C3.99219 25.7614 6.23076 28 8.99219 28H22.9922C25.7536 28 27.9922 25.7614 27.9922 23V9C27.9922 6.23858 25.7536 4 22.9922 4H8.99219ZM5.99219 9C5.99219 7.34315 7.33533 6 8.99219 6H22.9922C24.649 6 25.9922 7.34315 25.9922 9V23C25.9922 24.6569 24.649 26 22.9922 26H8.99219C7.33533 26 5.99219 24.6569 5.99219 23V9Z" fill="#212121"/>
</svg>

<svg viewBox="0 0 32 32" fill="none" xmlns="http://www.w3.org/2000/svg" height="1em" width="1em">
  <path d="M7.998 11a2 2 0 0 1 2-2h12a2 2 0 0 1 2 2v3a2 2 0 0 1-2 2h-12a2 2 0 0 1-2-2v-3Zm14 0h-12v3h12v-3Zm-3 7a2 2 0 0 0-2 2v2a2 2 0 0 0 2 2h3a2 2 0 0 0 2-2v-2a2 2 0 0 0-2-2h-3Zm0 2h3v2h-3v-2Zm-11-1a1 1 0 0 1 1-1h5a1 1 0 1 1 0 2h-5a1 1 0 0 1-1-1Zm1 3a1 1 0 1 0 0 2h5a1 1 0 1 0 0-2h-5ZM8.992 4a5 5 0 0 0-5 5v14a5 5 0 0 0 5 5h14a5 5 0 0 0 5-5V9a5 5 0 0 0-5-5h-14Zm-3 5a3 3 0 0 1 3-3h14a3 3 0 0 1 3 3v14a3 3 0 0 1-3 3h-14a3 3 0 0 1-3-3V9Z" fill="#212121"/>
</svg>
